!!!COM: Carl Loewe				
!!!CNT: Deutscher				
!!!TXO: Deutsch				
!!!OTL: "Die Uhr"				
!!!LYR: Seidl				 			
!!!OPS: Op. 123				
!!!ONM: No. 3 			
!!!ENC: O'Neal Douglas 					
!!!YOR: Twelve Songs and Ballads Vol. 1 and 2				
!!!YOR: New York:Schirmer, 1903					
!!!ODT: 1852/					
!!NB: Vocal melody and text encoded.
**kern	**text
*staff1	*staff1
*clefG2	*
*k[b-e-a-]	*
*M6/8	*
*MM114	*
8r	.
=1	=1
2.r	.
=2	=2
2.r	.
=3	=3
2.r	.
=4	=4
4r	.
8r	.
4r	.
{8g	{Ich
=5	=5
4g	tra-
8g	-ge,
4b-	wo
8b-	ich
=6	=6
4.e-	ge-
8f	-he,
8r	stets
8f	ei-
=7	=7
4e-	-ne
8e-	Uhr
4d	bei
8d	mir;
=8	=8
4.e-}	|}
4r	.
{8e-	{wie
=9	=9
8.g	viel
16g	es
8g	gesch
4an	la-
8a	-gen
=10	=10
4.b-	ha-
8B-	-be,
8r	.
8b-	ge-
=11	=11
8g	-nau
8r	.
8c	seh'
8e-	ich
8r	.
8An	an
=12	=12
4.B-}	ihr}
4r	.
8r	.
=13	=13
2.r	.
=14	=14
4r	.
8r	.
4r	.
{8g	{Es
=15	=15
4g	ist
8g	ein
4b-	gro-
8b-	-sser
=16	=16
4.e-	Mei-
8f	-ster,
8r	.
8f	der
=17	=17
8.e-	ku2nst-
16f	-lich
8e-	ihr
4d	Werk
8d	ge-
=18	=18
4.e-}	-fu2gt,}
4r	.
{8e-	{wenn
=19	=19
4g	gleigh
8g	ihr
4an	Gang
8a	nicht
=20	=20
4.b-	im-
8B-	-mer
8r	.
8b-	dem
=21	=21
8.g	tho2-
16g	-rich-
8c	-ten
8e-	Wun
8e-	sche
8An	ge-
=22	=22
4.B-}	-nu2gt.}
4r	.
8r	.
=23	=23
2.r	.
=24	=24
4r	.
8r	.
4r	.
{8b-	{Ich
=25	=25
8.b-	woll-
16b-	-te,
8b-	sie
(8.b-	wa2-
16a-)	|
8g	-re
=26	=26
8b-	ra-
8a-	-scher
8r	.
4r	.
8a-	ge-
=27	=27
8.a-	-gan-
16a-	-gen
8a-	an
(8.a-	man-
16g)	|
8f#	-chem
=28	=28
4.g}	Tag;}
4r	.
{8g	{ich
=29	=29
8.g	woll-
16g	-te,
8g	sie
(8.g	ha2t
16f)	|
8en	te
=30	=30
8g	manch
8f	mal
8r	.
4r	.
8f	ver-
=31	=31
8.f	-zo2-
16f	-gert
8f	den
(8.f	ra-
16e-)	|
8d	-schen
=32	=32
4.e-}	Schlag.}
4r	.
{8b-	{In
=33	=33
4b-	mei-
8b-	-nen
8.b-	Lei-
16a-	-den
8g	und
=34	=34
8b-	Freu-
8a-	-den,
8r	.
4r	.
8a-	im
=35	=35
4a-	Sturm
8a-	und
(8.a-	in
16g)	|
8f#	der
=36	=36
4.g}	Ruh',}
4r	.
{8g	{was
=37	=37
8.cc	im-
16cc	-mer
8cc	ge-
4f	-schah
8f	im
=38	=38
4.b-	Le-
8e-	-ben,
8r	.
8en	sie
=39	=39
8.f	poch-
16f	-te
8g	den
8a-	Takt
8r	.
8f	da-
=40	=40
4.e-}	-zu.}
4r	.
8r	.
=41	=41
2.r	.
=42	=42
4r	.
8r	.
4r	.
{8e-	{Sie
=43	=43
4g	schlug
8g	am
8.g	Sar-
16g	-ge
8g	des
=44	=44
4.cc	Va-
8c	-ters,
8r	.
8c	sie
=45	=45
8a-	schlug
8a-	an
8a-	des
(8a-	Freund
8g)	|
8d	des
=46	=46
4.e-}	Bahr',}
4r	.
{8e-	{sie
=47	=47
4g	schlug
8g	am
8.b-	Mor
16b-	gen
8b-	der
=48	=48
4.ee-	Lie-
8g	-be,
8r	.
8g	sie
=49	=49
4cc	schlug
(16f	am
16g)	|
(8.b-	Trau-
16a-)	|
(16g	-al-
16f)	|
=50	=50
4.e-}	-tar.}
4r	.
{8b-	{Sie
=51	=51
8.b-	schlug
16g	an
8e-	der
8.ee-	Wie-
16dd	-ge
8cc	des
=52	=52
4.b-	Kin-
8g	-des,
8r	.
8g	sie
=53	=53
8f	schla2gt,
8r	.
8g	will's
8a-	Gott!
8r	.
8b-	noch
=54	=54
8g}	oft,}
8r	.
8r	.
4r	.
{8B-	{wenn
=55	=55
8.e-	bes-
16ee-	se
8ee-	-re
(8.ee-	Ta-
16dd)	|
8cc	-ge
=56	=56
4.b-	kom-
8g	-men,
8r	.
8g	wie
=57	=57
4f	mei-
8g	-ne
(8.b-	Seel'
16a-)	|
(16g	es
16f)	|
=58	=58
4.e-}	hofft.}
4r	.
8r	.
=59	=59
2.r	.
=60	=60
4r	.
8r	.
4r	.
{8g	{Und
=61	=61
8.g	ward
16g	sie
8g	auch
4g	manch
8g	mal
=62	=62
4cc	tra2-
8g	-ger,
4r	.
8g	und
=63	=63
8.g	droh-
16g	-te
8a-	zu
8.f	sto-
16f	-cken
8g	ihr
=64	=64
4.g}	Lauf,}
4r	.
{8g	so
=65	=65
4g	zog
8g	der
4b-	Mei-
8b-	-ster
=66	=66
4.e-	im-
8f	-mer
8r	.
8f	gross-
=67	=67
8.e-	mu2
16f	-thig
8e-	sie
(8.d	wie-
16c)	|
8d	-der
=68	=68
[4.e-	auf.
4e-]}	|}
8r	.
=69	=69
2.r	.
=70	=70
4r	.
8r	.
4r	.
{8e-	{Doch
=71	=71
8.e-	sta2n-
16e-	-de
8B-	sie
4d-	ein-
8B-	-mal
=72	=72
8c-	stil-
8c-	-le
8r	.
4r	.
8A-	dann
=73	=73
4c-	wa2r's
8c-	um
4B-	sie
8A-	ge-
=74	=74
4.e-}	-scheh'n:}
4r	.
{8e-	{kein
=75	=75
8.e-	And'-
16e-	-rer,
8B-	als
(8.d-	der
16c-)	|
8B-	sie
=76	=76
8d-	fu2g-
8c-	-te,
8r	.
4r	.
8A-	bringt
=77	=77
4c-	die
8c-	Zer-
8.c-	-sto2r-
16B-	-te
8A-	zum
=78	=78
[4.e-	Geh'n.
4e-]}	|}
8r	.
=79	=79
2.r	.
=80	=80
4r	.
8r	.
4r	.
{8e-	{Dann
=81	=81
8.e-	mu2sst'
16e-	ich
8B-	zum
(8.d-	Mei-
16c-)	|
8B-	-ster
=82	=82
8c-	wan-
8c-	-dern
8r	.
4r	.
8A-	der
=83	=83
4c-	wohnt
8c-	am
8.c-	En-
16B-	-de
8A-	wohl
=84	=84
4.B-}	weit,}
4r	.
{8g	{wohl
=85	=85
4b-	drauss
8g	en,
8b-	jen-
8.a-	-seits
16g	der
=86	=86
8b-	Er-
8a-	-de,
8r	.
4r	.
8f	wohl
=87	=87
8a-	dort
16r	.
16a-	in
8a-	der
4cc-	E-
8d	-wig-
=88	=88
[4.e-	-keit!
4e-]}	|}
8r	.
=89	=89
2.r	.
=90	=90
4r	.
8r	.
4r	.
{8g	{Dann
=91	=91
8.g	ga2b'
16g	ich
8g	sie
4b-	ihm
8b-	zu-
=92	=92
4.e-	-ru2-
8f	-cke,
8r	.
8f	mit
=93	=93
4e-	dank-
8e-	-bar
8.d	kind-
16c	-li-
8d	-chem
=94	=94
4.e-}	Fleh'n:}
4r	.
{8ee-	{"Sieh',
=95	=95
4dd	Herr,
8cc	ich
8b-	hab'
8b-	nichts
8cc	ver-
=96	=96
(4b-	-dor-
16.a-	|
32g)	|
8g	-ben,
8r	.
8g	sie
=97	=97
4cc	blieb
8f	von
4a-	sel-
8d	-ber
=98	=98
2.e-}	stehn."}
=99	=99
2.r	.
=100	=100
2.r	.
==	==
*-	*-
